desc:O_SOITAR_DOIREP_EMIT_SDNOCES_52604_48_O_84_40625_SECONDS_TIME_PERIOD_RATIOS_O
slider1:84.40625<84.40625,84.40625,84.40625>O_EMIT_SDNOCES_O_SECONDS_TIME_O
slider2:84406.25<84406.25,84406.25,84406.25>O_EMIT_SDNOCESILIM_O_MILISECONDS_TIME_O
slider3:1<1,16,1>O_SEMIT_NOISIVID_O_DIVISION_TIMES_O
slider4:0<0,0,0>O_REDIVID_EMIT_SDNOCES_O_SECONDS_TIME_DIVIDER_O
slider5:0<0,0,0>O_EMIT_SDNOCES_DEDIVID_O_DIVIDED_SECONDS_TIME_O
slider6:0<0,0,0>O_EMIT_SDNOCESILIM_DEDIVID_O_DIVIDED_MILISECONDS_TIME_O

slider8:1/84406.25<1/84406.25,1/84406.25,1/84406.25>O_YCNEUQERF_ZTREH_O_HERTZ_FREQUENCY_O
slider9:1<1,32,1>O_SEMIT_NOITACILPITLUM_O_MULTIPLICATION_TIMES_O
slider10:0<0,0,0>O_REILPITLUM_YCNEUQERF_ZTREH_O_HERTZ_FREQUENCY_MULTIPLIER_O
slider11:0<0,0,0>O_YCNEUQERF_ZTREH_DEILPITLUM_O_MULTIPLIED_HERTZ_FREQUENCY_O

slider13:0<0,0,0>O_YCNEUQERF_ZTREH_4A_O_A4_HERTZ_FREQUENCY_O

slider15:0<0,0,0>O_ETAR_TFIHS_HCTIP_O_PITCH_SHIFT_RATE_O

slider16:0<0,0,0>O_TFIHS_STNEC_O_CENTS_SHIFT_O

@block
slider2=slider1*1000;
slider4=2^slider3;
slider6=slider2/slider4;


slider8=1/(slider2/1000);

slider10=2^slider9;
slider11=slider8*slider10;

slider13=32768*slider8;

slider15=slider13/440;

O_TFIHS_STNEC_O_CENTS_SHIFT_O= abs(  (1200* (LOG10(440)/LOG10(2)) ) - (1200* (LOG10(slider13)/LOG10(2)) )  );

slider16=O_TFIHS_STNEC_O_CENTS_SHIFT_O;
