    
    
    
    
desc:XFSJ.O_EDUTILPMA_YVAW_O_WAVY_AMPLITUDE_O.JSFX
    
    
    
    
slider1:1<0,100,1>O_YCNEUQERF_EVAW_ZTREH_O_HERTZ_WAVE_FREQUENCY_O
    
slider2:0<-181.01933598375616624661615669884,0,2.8284271247461900976033774484194>O_XIM_O_MIX_O
    
slider3:0<0,1>O_NOITARAPES_OERETS_O_STEREO_SEPARATION_O
    
    
    
    
slider8:1/84.406022589954030768899117092091000289089388918088900852079<84.406022589954030768899117092091000289089388918088900852079,84.406022589954030768899117092091000289089388918088900852079,84.406022589954030768899117092091000289089388918088900852079>O_YCNEUQERF_ZTREH_DOIREP_EMIT_SDNOCES_NOITAREBREVER_LACIRTEMYS_LAINEGNOC_O_CONGENIAL_SYMETRICAL_REVERBERATION_SECONDS_TIME_PERIOD_HERTZ_FREQUENCY_O
    
slider9:9<0,46,1>O_SEMIT_NOITACILPITLUM_O_MULTIPLICATION_TIMES_O
    
slider10:0<0,4294967296,2>O_REILPITLUM_YCNEUQERF_ZTREH_DOIREP_EMIT_SDNOCES_NOITAREBREVER_LACIRTEMYS_LAINEGNOC_O_CONGENIAL_SYMETRICAL_REVERBERATION_SECONDS_TIME_PERIOD_HERTZ_FREQUENCY_MULTIPLIER_O
    
slider11:388.217697149203998519067012<0,24845.932617549055905220288781,1>O_YCNEUQERF_ZTREH_DEILPITLUM_DOIREP_EMIT_SDNOCES_NOITAREBREVER_LACIRTEMYS_LAINEGNOC_O_CONGENIAL_SYMETRICAL_REVERBERATION_SECONDS_TIME_PERIOD_MULTIPLIED_HERTZ_FREQUENCY_O
    
    
    
    
@sample    
    
    O_VDA_O_ADV_O    =    (4*atan(1))    *    2    *    SLIDER1    /    SRATE    ;    
    
    O_NOITARAPES_OERETS_O_STEREO_SEPARATION_O    =    SLIDER3    *   (4*atan(1))    ;    
    
    O_TNUOMA_O_AMOUNT_O    =    2    ^    (    SLIDER2    /    6    )    ;    
    
    O_CS_O_SC_O    =    0.5    *    O_TNUOMA_O_AMOUNT_O    ;    O_TNUOMA_O_AMOUNT_O    =    1    -    O_TNUOMA_O_AMOUNT_O    ;    

    SLIDER8    =    1    /    84.406022589954030768899117092091000289089388918088900852079    ;    
    
    SLIDER10    =    3    ^    SLIDER9    ;    
    
    SLIDER1    =    SLIDER11    =    (    SLIDER8    *    SLIDER10    )    ;    
    
    O_NOITISOP_O_POSITION_O    +=    O_VDA_O_ADV_O    ;    
    
    SPL0    =    SPL0    *    (    (    1    -    COS    (    O_NOITISOP_O_POSITION_O    +    (0)    )    +    0    )    *    O_CS_O_SC_O    +    O_TNUOMA_O_AMOUNT_O    )    ;    
    
    SPL1    =    SPL1    *    (    (    1    -    COS    (    O_NOITISOP_O_POSITION_O    +    O_NOITARAPES_OERETS_O_STEREO_SEPARATION_O    +    (0)    )    +    0    )    *    O_CS_O_SC_O    +    O_TNUOMA_O_AMOUNT_O    )    ;    
    
    
    
    
