desc:XFSJ.O_KCOLC_DOIREP_EMIT_ECNEREFER_O_REFERENCE_TIME_PERIOD_CLOCK_O.JSFX

slider1:1<0,4000,1>O_RAEY_O_YEAR_O
slider2:1<1,366,1>O_YAD_O_DAY_O
slider3:0<0,23,1>O_SRUOH_O_HOURS_O
slider4:0<0,59,1>O_SETUNIM_O_MINUTES_O
slider5:0<0,59,1>O_SDNOCES_O_SECONDS_O

slider7:3<-24,24,1>O_EMIT_NAEM_HCIWNERG_O_GRENWICH_MEAN_TIME_O
slider8:-6<-24,24,1>O_TESFO_RUOH_O_HOUR_OFSET_O

slider10:0<0,31470763.394911396337701284,1>O_YAD_REP_SDNOCES_O_SECONDS_PER_DAY_O
slider11:0<0,31470763.394911396337701284,1>O_RAEY_REP_SYAD_O_DAYS_PER_YEAR_O
slider12:0<0,31470763.394911396337701284,1>O_RAEY_REP_SDNOCES_O_SECONDS_PER_YEAR_O
slider13:0<0,31470763.394911396337701284,1>O_DETRATS_RAEY_ECNCS_SDNOCES_O_SECONDS_SINCE_YEAR_STARTED_O

slider15:84.40625<0,168.8125,1>O_DOIREP_EMIT_SDNOCES_ECNEREFER_O_REFERENCE_SECONDS_TIME_PERIOD_O
slider16:84.40625<0,168.8125,1>O_YAD_NI_SDOIREP_EMIT_SDNOCES_ECNEREFER_O_REFERENCE_SECONDS_TIME_PERIODS_IN_DAY_O
slider17:84.40625<0,168.8125,1>O_RAEY_NI_SDOIREP_EMIT_SDNOCES_ECNEREFER_O_REFERENCE_SECONDS_TIME_PERIODS_IN_YEAR_O

slider19:84.40625<0,372848.733298,1>O_DETRATS_RAEY_ECNIS_SDOIREP_EMIT_ECNEREFER_O_REFERENCE_TIME_PERIODS_SINCE_YEAR_STARTED_O


@block
O_0791_ECNIS_RAEY_TNERUC_O_CURENT_YEAR_SINCE_1970_O=FLOOR(TIME()/(86164.09471726194*365.2421986))+1970;
O_RAEY_O_YEAR_O=FLOOR(TIME_PRECISE()/(86164.09471726194*365.2421986));
O_YAD_O_DAY_O=FLOOR((TIME_PRECISE()-(O_RAEY_O_YEAR_O*(86164.09471726194*365.242198)))/86164.09471726194);
O_RUOH_DETESFO_O_OFSETED_HOUR_O=FLOOR((TIME_PRECISE()/3600)+SLIDER8)%24;
O_RUOH_O_HOUR_O=FLOOR(TIME_PRECISE()/3600);
O_SETUNIM_O_MINUTES_O=FLOOR((TIME_PRECISE()-O_RUOH_O_HOUR_O*3600)/60);
O_SDNOCES_O_SECONDS_O=(TIME_PRECISE()-O_RUOH_O_HOUR_O*3600-O_SETUNIM_O_MINUTES_O*60);
SLIDER1=O_0791_ECNIS_RAEY_TNERUC_O_CURENT_YEAR_SINCE_1970_O;
SLIDER2=O_YAD_O_DAY_O+1;
SLIDER3=O_RUOH_DETESFO_O_OFSETED_HOUR_O;
SLIDER4=O_SETUNIM_O_MINUTES_O;
SLIDER5=O_SDNOCES_O_SECONDS_O;

SLIDER8=SLIDER7-6;

SLIDER10=(86164.098903691 + 86164.09053083288) /2;
SLIDER11=365.2421986;
SLIDER12=SLIDER10*SLIDER11;
SLIDER13=TIME_PRECISE();

SLIDER16=SLIDER10/SLIDER15;
SLIDER17=( (SLIDER10*SLIDER11) )/SLIDER15;

SLIDER19=TIME_PRECISE()/SLIDER15;
