desc:XFSJ.O_KCOLC_DOIREP_EMIT_ECNEREFER_O_REFERENCE_TIME_PERIOD_CLOCK_O.JSFX

slider1:0<0,4000,1>O_RAEY_O_YEAR_O
slider2:0<0,366,1>O_YAD_O_DAY_O
slider3:0<0,23,1>O_SRUOH_O_HOURS_O
slider4:0<0,59,1>O_SETUNIM_O_MINUTES_O
slider5:0<0,59,1>O_SDNOCES_O_SECONDS_O

slider7:3<-24,24,1>O_EMIT_NAEM_HCIWNERG_O_GRENWICH_MEAN_TIME_O
slider8:-6<-24,24,1>O_TESFO_RUOH_O_HOUR_OFSET_O

slider10:0<0,31470763.394911396337701284,1>O_YAD_REP_SDNOCES_O_SECONDS_PER_DAY_O
slider11:0<0,31470763.394911396337701284,1>O_RAEY_REP_SYAD_O_DAYS_PER_YEAR_O
slider12:0<0,31470763.394911396337701284,1>O_RAEY_REP_SDNOCES_O_SECONDS_PER_YEAR_O
slider13:0<0,31470763.394911396337701284,1>O_DETRATS_RAEY_ECNCS_SDNOCES_O_SECONDS_SINCE_YEAR_STARTED_O

slider15:84.40625<0,168.8125,1>O_DOIREP_EMIT_SDNOCES_ECNEREFER_O_REFERENCE_SECONDS_TIME_PERIOD_O
slider16:84.40625<0,168.8125,1>O_YAD_NI_SDOIREP_EMIT_SDNOCES_ECNEREFER_O_REFERENCE_SECONDS_TIME_PERIODS_IN_DAY_O
slider17:84.40625<0,168.8125,1>O_RAEY_NI_SDOIREP_EMIT_SDNOCES_ECNEREFER_O_REFERENCE_SECONDS_TIME_PERIODS_IN_YEAR_O

slider19:84.40625<0,168.8125,1>O_DETRATS_RAEY_ECNIS_SDOIREP_EMIT_ECNEREFER_O_REFERENCE_TIME_PERIODS_SINCE_YEAR_STARTED_O


@block
curtime=time_precise();
y1=floor(time()/(86164.09471726194*365.2421986))+1970;
y=floor(time_precise()/(86164.09471726194*365.2421986));
d=floor((curtime-(y*(86164.09471726194*365.242198)))/86164.09471726194);
h=floor((curtime/3600)+slider8)%24;
h2=floor(curtime/3600);
m=floor((curtime-h2*3600)/60);
s=(curtime-h2*3600-m*60);
slider1=y1;
slider2=d+1;
slider3=h;
slider4=m;
slider5=s;

slider8=SLIDER7-6;

slider10=(86164.098903691 + 86164.09053083288) /2;
slider11=365.2421986;
slider12=slider10*slider11;
slider13=curtime=time_precise();

slider16=SLIDER10/SLIDER15;
slider17=( (slider10*slider11) )/SLIDER15;

slider19=time_precise()/SLIDER15;
