desc:XFSJ.O_EDUTILPMA_YWAW_O_WAWY_AMPLITUDE_O.JSFX
slider1:1/84.406022589954030768899117092091000289089388918088900852079<84.406022589954030768899117092091000289089388918088900852079,84.406022589954030768899117092091000289089388918088900852079,84.406022589954030768899117092091000289089388918088900852079>O_YCNEUQERF_ZTREH_DOIREP_EMIT_SDNOCES_NOITAREBREVER_LACIRTEMYS_LAINEGNOC_O_CONGENIAL_SYMETRICAL_REVERBERATION_SECONDS_TIME_PERIOD_HERTZ_FREQUENCY_O
slider2:4<0,16,1>O_SEMIT_NOITACILPITLUM_O_MULTIPLICATION_TIMES_O
slider3:1.04205<0,84.406022589954030768899117092091000289089388918088900852079,1.04205>O_DOIREP_SDNOCES_DEILPITLUM_DOIREP_EMIT_SDNOCES_NOITAREBREVER_LACIRTEMYS_LAINEGNOC_O_CONGENIAL_SYMETRICAL_REVERBERATION_SECONDS_TIME_PERIOD_MULTIPLIED_SECONDS_PERIOD_O
slider4:0<0,4294967296,1>O_REILPITLUM_YCNEUQERF_ZTREH_DOIREP_EMIT_SDNOCES_NOITAREBREVER_LACIRTEMYS_LAINEGNOC_O_CONGENIAL_SYMETRICAL_REVERBERATION_SECONDS_TIME_PERIOD_HERTZ_FREQUENCY_MULTIPLIER_O
slider5:0.959647<0,509995.847205,0.011847>O_YCNEUQERF_ZTREH_DEILPITLUM_DOIREP_EMIT_SDNOCES_NOITAREBREVER_LACIRTEMYS_LAINEGNOC_O_CONGENIAL_SYMETRICAL_REVERBERATION_SECONDS_TIME_PERIOD_MULTIPLIED_HERTZ_FREQUENCY_O
slider6:7<0,10,1{O-ROLF-DETREWNI-O-INWERTED-FLOR-O,O-CRA-DETREWNI-O-INWERTED-ARC-O,O-DIOMGIS-CRA-ELBUOD-DETREWNI-O-INWERTED-DOUBLE-ARC-SIGMOID-O,O-NOITAMIXORPA-LAITNENOPXE-NOITCNUF-SUIBAF-DETREWNI-O-INWERTED-FABIUS-FUNCTION-EXPONENTIAL-APROXIMATION-O,O-ENISOC-DETREWNI-O-INWERTED-COSINE-O,O-RAENIL-O-LINEAR-O,O-ENISOC-O-COSINE-O,O-NOITAMIXORPA-LAITNENOPXE-NOITCNUF-SUIBAF-O-FABIUS-FUNCTION-EXPONENTIAL-APROXIMATION-O,O-DIOMGIS-CRA-ELBUOD-O-DOUBLE-ARC-SIGMOID-O,O-CRA-O-ARC-O,O-ROLF-O-FLOR-O}>O_EPAHS_O_SHAPE_O
slider7:2<0,16,.0625>O_REWOP_CRA_O_ARC_POWER_O

@sample
FUNCTION MOD(X,M)(X-FLOOR(X/M)*M);
FUNCTION ATANH(X)(.5*LOG((1+X)/(1-X)));
SLIDER1=1/84.406022589954030768899117092091000289089388918088900852079;
SLIDER4=3^SLIDER2;
SLIDER5=(SLIDER1*SLIDER4);
SLIDER3=1/SLIDER5;
O_NOITISOP_O_POSITION_O+=2*SLIDER5/SRATE;
SLIDER6==0//O-ROLF-DETREWNI-O-INWERTED-FLOR-O\\
?
(
SPL0=SPL0*FLOOR((0.5-0.5*(-1)^FLOOR(O_NOITISOP_O_POSITION_O)+((-1)^FLOOR(O_NOITISOP_O_POSITION_O))/(1+EXP((1)/(-1+MOD(O_NOITISOP_O_POSITION_O,1))+(1)/(MOD(O_NOITISOP_O_POSITION_O,1)))))-.5);
SPL1=SPL1*FLOOR((0.5-0.5*(-1)^FLOOR(O_NOITISOP_O_POSITION_O)+((-1)^FLOOR(O_NOITISOP_O_POSITION_O))/(1+EXP((1)/(-1+MOD(O_NOITISOP_O_POSITION_O,1))+(1)/(MOD(O_NOITISOP_O_POSITION_O,1)))))-.5);
)
:
SLIDER6==1//O-CRA-DETREWNI-O-INWERTED-ARC-O\\
?
(
SPL0=SPL0*(1-1*(1-ABS(-1+MOD(1+O_NOITISOP_O_POSITION_O,2))^SLIDER7)^(1/SLIDER7));
SPL1=SPL1*(1-1*(1-ABS(-1+MOD(1+O_NOITISOP_O_POSITION_O,2))^SLIDER7)^(1/SLIDER7));
)
:
SLIDER6==2//O-DIOMGIS-CRA-ELBUOD-DETREWNI-O-INWERTED-DOUBLE-ARC-SIGMOID-O\\
?
(
SPL0=SPL0*(.5+.5*(-1)^FLOOR(-0.5+O_NOITISOP_O_POSITION_O)-0.5*(-1)^FLOOR(-0.5+O_NOITISOP_O_POSITION_O)*(1-2^SLIDER7*ABS(-0.5+MOD(O_NOITISOP_O_POSITION_O,1))^SLIDER7)^(1/SLIDER7));
SPL1=SPL1*(.5+.5*(-1)^FLOOR(-0.5+O_NOITISOP_O_POSITION_O)-0.5*(-1)^FLOOR(-0.5+O_NOITISOP_O_POSITION_O)*(1-2^SLIDER7*ABS(-0.5+MOD(O_NOITISOP_O_POSITION_O,1))^SLIDER7)^(1/SLIDER7));
)
:
SLIDER6==3//O-NOITAMIXORPA-LAITNENOPXE-NOITCNUF-SUIBAF-DETREWNI-O-INWERTED-FABIUS-FUNCTION-EXPONENTIAL-APROXIMATION-O\\
?
(
SPL0=SPL0*(.5+((-1)^FLOOR(O_NOITISOP_O_POSITION_O)*(.5-.5*SQRT(1+ATANH(1-2*MOD(O_NOITISOP_O_POSITION_O,1))^2)))/ATANH(1-2*MOD(O_NOITISOP_O_POSITION_O,1)));
SPL1=SPL1*(.5+((-1)^FLOOR(O_NOITISOP_O_POSITION_O)*(.5-.5*SQRT(1+ATANH(1-2*MOD(O_NOITISOP_O_POSITION_O,1))^2)))/ATANH(1-2*MOD(O_NOITISOP_O_POSITION_O,1)));
)
:
SLIDER6==4//O-ENISOC-DETREWNI-O-INWERTED-COSINE-O\\
?
(
SPL0=SPL0*(0.5-0.5*(-1)^FLOOR(O_NOITISOP_O_POSITION_O)+((-1)^FLOOR(O_NOITISOP_O_POSITION_O)*ACOS(1.-2*MOD(O_NOITISOP_O_POSITION_O,1)))/(4*ATAN(1)));
SPL1=SPL1*(0.5-0.5*(-1)^FLOOR(O_NOITISOP_O_POSITION_O)+((-1)^FLOOR(O_NOITISOP_O_POSITION_O)*ACOS(1.-2*MOD(O_NOITISOP_O_POSITION_O,1)))/(4*ATAN(1)));
)
:
SLIDER6==5//O-RAENIL-O-LINEAR-O\\
?
(
SPL0=SPL0*(ACOS(COS(O_NOITISOP_O_POSITION_O*(4*ATAN(1))))/(4*ATAN(1)));
SPL1=SPL1*(ACOS(COS(O_NOITISOP_O_POSITION_O*(4*ATAN(1))))/(4*ATAN(1)));
)
:
SLIDER6==6//O-ENISOC-O-COSINE-O\\
?
(
SPL0=SPL0*((.5-.5*COS(O_NOITISOP_O_POSITION_O*(4*ATAN(1))+(0))+0));
SPL1=SPL1*((.5-.5*COS(O_NOITISOP_O_POSITION_O*(4*ATAN(1))+(0))+0));
)
:
SLIDER6==7//O-NOITAMIXORPA-LAITNENOPXE-NOITCNUF-SUIBAF-O-FABIUS-FUNCTION-EXPONENTIAL-APROXIMATION-O\\
?
(
SPL0=SPL0*(0.5-0.5*(-1)^FLOOR(O_NOITISOP_O_POSITION_O)+((-1)^FLOOR(O_NOITISOP_O_POSITION_O))/(1+EXP((1)/(-1+MOD(O_NOITISOP_O_POSITION_O,1))+(1)/(MOD(O_NOITISOP_O_POSITION_O,1)))));
SPL1=SPL1*(0.5-0.5*(-1)^FLOOR(O_NOITISOP_O_POSITION_O)+((-1)^FLOOR(O_NOITISOP_O_POSITION_O))/(1+EXP((1)/(-1+MOD(O_NOITISOP_O_POSITION_O,1))+(1)/(MOD(O_NOITISOP_O_POSITION_O,1)))));
)
:
SLIDER6==8//O-DIOMGIS-CRA-ELBUOD-O-DOUBLE-ARC-SIGMOID-O\\
?
(
SPL0=SPL0*(.5+.5*((-1)^FLOOR((O_NOITISOP_O_POSITION_O-.5)*2/2)*(1-ABS(MOD((O_NOITISOP_O_POSITION_O-.5)*2,2)-1)^SLIDER7)^(1/SLIDER7)));
SPL1=SPL1*(.5+.5*((-1)^FLOOR((O_NOITISOP_O_POSITION_O-.5)*2/2)*(1-ABS(MOD((O_NOITISOP_O_POSITION_O-.5)*2,2)-1)^SLIDER7)^(1/SLIDER7)));
)
:
SLIDER6==9//O-CRA-O-ARC-O\\
?
(
SPL0=SPL0*((1-ABS(-1+MOD(O_NOITISOP_O_POSITION_O,2))^SLIDER7)^(1/SLIDER7));
SPL1=SPL1*((1-ABS(-1+MOD(O_NOITISOP_O_POSITION_O,2))^SLIDER7)^(1/SLIDER7));
)
:
SLIDER6==10//O-ROLF-O-FLOR-O\\
?
(
SPL0=SPL0*FLOOR((0.5-0.5*(-1)^FLOOR(O_NOITISOP_O_POSITION_O)+((-1)^FLOOR(O_NOITISOP_O_POSITION_O))/(1+EXP((1)/(-1+MOD(O_NOITISOP_O_POSITION_O,1))+(1)/(MOD(O_NOITISOP_O_POSITION_O,1)))))+.5);
SPL1=SPL1*FLOOR((0.5-0.5*(-1)^FLOOR(O_NOITISOP_O_POSITION_O)+((-1)^FLOOR(O_NOITISOP_O_POSITION_O))/(1+EXP((1)/(-1+MOD(O_NOITISOP_O_POSITION_O,1))+(1)/(MOD(O_NOITISOP_O_POSITION_O,1)))))+.5);
)
;
